svg/fluentui-system-icons/ic_fluent_highlight_accent_16_filled.svg

<svg width="16" height="16" viewBox="0 0 16 16" fill="none" xmlns="http://www.w3.org/2000/svg">
<path d="M13.5 2V5C13.5 5.27614 13.2761 5.5 13 5.5H3C2.72386 5.5 2.5 5.27614 2.5 5V2.00003L13.5 2ZM5.5 8.5H10.4997L10.4999 10.3675C10.5 11.0701 10.1313 11.7212 9.52887 12.0827L5.5 14.5V8.5Z" fill="#212121"/>
</svg>

<svg xmlns="http://www.w3.org/2000/svg" width="16" height="16"><path d="M13.5 2v3a.5.5 0 0 1-.5.5H3a.5.5 0 0 1-.5-.5V2h11Zm-8 6.5h5v1.867a2 2 0 0 1-.971 1.716L5.5 14.5v-6Z"/></svg>
